assets/images/afrikons/copy-outline.svg

<svg viewBox="0 0 50 50" xmlns="http://www.w3.org/2000/svg"><path d="m0 0h50v50h-50z" fill="none"/><path d="m42.13 25v-8.82a5.49 5.49 0 0 0 -5.48-5.48h-12.36a5.49 5.49 0 0 0 -5.48 5.48v28.34a5.49 5.49 0 0 0 5.48 5.48h12.36a5.49 5.49 0 0 0 5.48-5.48v-10.61h-1.44v10.61a4 4 0 0 1 -4 4h-12.4a4 4 0 0 1 -4-4v-28.34a4.05 4.05 0 0 1 4-4h12.36a4.05 4.05 0 0 1 4 4v8.82z"/><path d="m35.69 1.44v-1.44h-11.78a16.06 16.06 0 0 0 -16 16v24.48h1.4v-24.48a14.62 14.62 0 0 1 14.6-14.6z"/></svg>

<svg xmlns="http://www.w3.org/2000/svg" viewBox="0 0 50 50"><defs><style>.cls-1{fill:none;}</style></defs><title>copy-outline</title><g id="Layer_2" data-name="Layer 2"><g id="Layer_1-2" data-name="Layer 1"><rect class="cls-1" width="50" height="50"/><path d="M42.13,25V16.18a5.49,5.49,0,0,0-5.48-5.48H24.29a5.49,5.49,0,0,0-5.48,5.48V44.52A5.49,5.49,0,0,0,24.29,50H36.65a5.49,5.49,0,0,0,5.48-5.48V33.91H40.69V44.52a4,4,0,0,1-4,4H24.29a4,4,0,0,1-4-4V16.18a4.05,4.05,0,0,1,4-4H36.65a4.05,4.05,0,0,1,4,4V25Z"/><path d="M35.69,1.44V0H23.91a16.06,16.06,0,0,0-16,16V40.48H9.31V16a14.62,14.62,0,0,1,14.6-14.6Z"/></g></g></svg>
